images/backgrounds/sponsor-header.svg

<?xml version="1.0" encoding="UTF-8"?>
<svg width="866px" height="143px" viewBox="0 0 866 143" version="1.1" xmlns="http://www.w3.org/2000/svg" xmlns:xlink="http://www.w3.org/1999/xlink">
    <!-- Generator: Sketch 49.3 (51167) - http://www.bohemiancoding.com/sketch -->
    <title>Group</title>
    <desc>Created with Sketch.</desc>
    <defs>
        <path d="M46.2499993,39.2 C39.8499673,35.666649 34.2833563,33.9 29.5499993,33.9 C26.3499833,33.9 23.8666748,34.533327 22.0999993,35.8 C20.3333238,37.066673 19.4499993,38.966654 19.4499993,41.5 C19.4499993,43.833345 20.7333198,45.8833245 23.2999993,47.65 C25.8666788,49.4166755 29.2833113,51.099992 33.5499993,52.7 C37.0166833,53.966673 39.9833203,55.4166585 42.4499993,57.05 C44.9166783,58.6833415 46.9666578,60.933319 48.5999993,63.8 C50.2333408,66.666681 51.0499993,70.299978 51.0499993,74.7 C51.0499993,78.500019 50.0666758,82.0166505 48.0999993,85.25 C46.1333228,88.4833495 43.2500183,91.0499905 39.4499993,92.95 C35.6499803,94.8500095 31.1166923,95.8 25.8499993,95.8 C21.4499773,95.8 17.0833543,95.1500065 12.7499993,93.85 C8.41664433,92.5499935 4.38335133,90.56668 0.649999332,87.9 L7.04999933,76.6 C9.58334533,78.466676 12.4833163,79.999994 15.7499993,81.2 C19.0166823,82.400006 21.9499863,83 24.5499993,83 C27.6166813,83 30.2833213,82.3500065 32.5499993,81.05 C34.8166773,79.7499935 35.9499993,77.633348 35.9499993,74.7 C35.9499993,70.899981 32.3833683,67.600014 25.2499993,64.8 C21.0499783,63.133325 17.5500133,61.533341 14.7499993,60 C11.9499853,58.466659 9.53334283,56.266681 7.49999933,53.4 C5.46665583,50.533319 4.44999933,46.933355 4.44999933,42.6 C4.44999933,36.266635 6.53331183,31.166686 10.6999993,27.3 C14.8666868,23.433314 20.4166313,21.333335 27.3499993,21 C32.8166933,21 37.3833143,21.6166605 41.0499993,22.85 C44.7166843,24.0833395 48.2833153,25.833322 51.7499993,28.1 L46.2499993,39.2 Z M88.4499995,49.1 C92.5166865,49.1 96.1499835,50.066657 99.3499995,52 C102.550016,53.933343 105.066657,56.699982 106.9,60.3 C108.733342,63.900018 109.65,68.133309 109.65,73 C109.65,77.800024 108.633343,81.9499825 106.6,85.45 C104.566656,88.9500175 101.733351,91.6166575 98.0999995,93.45 C94.466648,95.2833425 90.3166895,96.2 85.6499995,96.2 C83.1166535,96.2 80.633345,95.7500045 78.1999995,94.85 C75.766654,93.9499955 73.7500075,92.666675 72.1499995,91 L72.1499995,116 L58.2499995,116 L58.2499995,50.3 L70.2499995,50.3 L71.4499995,55.5 C76.7833595,51.233312 82.4499695,49.1 88.4499995,49.1 Z M82.8499995,85.2 C86.3166835,85.2 89.2833205,84.066678 91.7499995,81.8 C94.2166785,79.533322 95.4499995,76.666684 95.4499995,73.2 C95.4499995,69.599982 94.333344,66.6500115 92.0999995,64.35 C89.866655,62.0499885 87.1166825,60.9 83.8499995,60.9 C81.1166525,60.9 78.800009,61.4499945 76.8999995,62.55 C74.99999,63.6500055 73.4500055,65.299989 72.2499995,67.5 L72.2499995,78.2 C72.9833365,80.333344 74.29999,82.033327 76.1999995,83.3 C78.100009,84.566673 80.3166535,85.2 82.8499995,85.2 Z M112.55,72.6 C112.55,68.133311 113.599989,64.133351 115.7,60.6 C117.80001,57.066649 120.766647,54.2833435 124.6,52.25 C128.433352,50.2166565 132.783309,49.2 137.65,49.2 C142.516691,49.2 146.799981,50.2166565 150.5,52.25 C154.200018,54.2833435 157.04999,57.066649 159.05,60.6 C161.05001,64.133351 162.05,68.133311 162.05,72.6 C162.05,77.066689 161.05001,81.099982 159.05,84.7 C157.04999,88.300018 154.200018,91.1166565 150.5,93.15 C146.799981,95.1833435 142.450025,96.2 137.45,96.2 C132.583309,96.2 128.266685,95.2500095 124.5,93.35 C120.733314,91.4499905 117.80001,88.733351 115.7,85.2 C113.599989,81.666649 112.55,77.466691 112.55,72.6 Z M126.65,72.7 C126.65,76.166684 127.64999,79.0499885 129.65,81.35 C131.65001,83.6500115 134.183318,84.8 137.25,84.8 C140.450016,84.8 143.033323,83.666678 145,81.4 C146.966676,79.133322 147.95,76.233351 147.95,72.7 C147.95,69.166649 146.966676,66.266678 145,64 C143.033323,61.733322 140.450016,60.6 137.25,60.6 C134.183318,60.6 131.65001,61.7499885 129.65,64.05 C127.64999,66.3500115 126.65,69.233316 126.65,72.7 Z M198.75,49.2 C202.883354,49.2 206.333319,50.433321 209.1,52.9 C211.86668,55.366679 213.283333,58.499981 213.35,62.3 L213.35,95 L199.35,95 L199.35,67.5 C199.149999,63.233312 197.016687,61.1 192.95,61.1 C189.749984,61.1 187.183343,62.599985 185.25,65.6 C183.316657,68.600015 182.35,72.466643 182.35,77.2 L182.35,95 L168.35,95 L168.35,51.3 L181.05,51.3 L182.05,58.3 C183.650008,55.433319 185.866652,53.200008 188.7,51.6 C191.533347,49.999992 194.883314,49.2 198.75,49.2 Z M237.25,95.9 C233.649982,95.9 230.283349,95.266673 227.15,94 C224.016651,92.733327 221.416677,90.966678 219.35,88.7 L225.15,81 C229.016686,84.600018 232.649983,86.4 236.05,86.4 C237.850009,86.4 239.299995,86.1166695 240.4,85.55 C241.500006,84.9833305 242.05,84.133339 242.05,83 C242.05,81.66666 241.416673,80.6500035 240.15,79.95 C238.883327,79.2499965 237.466675,78.666669 235.9,78.2 C234.333326,77.733331 233.283336,77.433334 232.75,77.3 C228.949981,76.099994 226.116676,74.3166785 224.25,71.95 C222.383324,69.5833215 221.45,66.866682 221.45,63.8 C221.45,61.466655 222.066661,59.1833445 223.3,56.95 C224.53334,54.7166555 226.449987,52.8833405 229.05,51.45 C231.650013,50.0166595 234.883314,49.3 238.75,49.3 C242.350018,49.3 245.416654,49.666663 247.95,50.4 C250.483346,51.133337 252.916655,52.333325 255.25,54 L249.95,62.2 C248.61666,61.133328 247.133342,60.2500035 245.5,59.55 C243.866659,58.8499965 242.38334,58.5 241.05,58.5 C239.449992,58.5 238.150005,58.83333 237.15,59.5 C236.149995,60.16667 235.65,60.966662 235.65,61.9 C235.583333,63.300007 236.166661,64.3499965 237.4,65.05 C238.63334,65.7500035 240.549987,66.466663 243.15,67.2 C243.550002,67.333334 243.966665,67.466666 244.4,67.6 C244.833336,67.733334 245.283331,67.866666 245.75,68 C252.616701,70.266678 256.05,74.39997 256.05,80.4 C256.05,83.200014 255.350007,85.766655 253.95,88.1 C252.549993,90.433345 250.433348,92.3166595 247.6,93.75 C244.766653,95.1833405 241.316687,95.9 237.25,95.9 Z M259.65,72.6 C259.65,68.133311 260.69999,64.133351 262.8,60.6 C264.900011,57.066649 267.866648,54.2833435 271.7,52.25 C275.533353,50.2166565 279.883309,49.2 284.75,49.2 C289.616691,49.2 293.899982,50.2166565 297.6,52.25 C301.300019,54.2833435 304.14999,57.066649 306.15,60.6 C308.15001,64.133351 309.15,68.133311 309.15,72.6 C309.15,77.066689 308.15001,81.099982 306.15,84.7 C304.14999,88.300018 301.300019,91.1166565 297.6,93.15 C293.899982,95.1833435 289.550025,96.2 284.55,96.2 C279.683309,96.2 275.366686,95.2500095 271.6,93.35 C267.833315,91.4499905 264.900011,88.733351 262.8,85.2 C260.69999,81.666649 259.65,77.466691 259.65,72.6 Z M273.75,72.7 C273.75,76.166684 274.74999,79.0499885 276.75,81.35 C278.75001,83.6500115 281.283318,84.8 284.35,84.8 C287.550016,84.8 290.133324,83.666678 292.1,81.4 C294.066677,79.133322 295.05,76.233351 295.05,72.7 C295.05,69.166649 294.066677,66.266678 292.1,64 C290.133324,61.733322 287.550016,60.6 284.35,60.6 C281.283318,60.6 278.75001,61.7499885 276.75,64.05 C274.74999,66.3500115 273.75,69.233316 273.75,72.7 Z M329.15,61.3 C330.350006,58.966655 331.99999,56.866676 334.1,55 C336.200011,53.133324 338.349989,51.6833385 340.55,50.65 C342.750011,49.6166615 344.483327,49.1 345.75,49.1 L345.05,63.1 C344.649998,63.033333 344.083337,63 343.35,63 C340.549986,63 338.083344,63.733326 335.95,65.2 C333.816656,66.666674 332.183339,68.5499885 331.05,70.85 C329.916661,73.1500115 329.35,75.499988 329.35,77.9 L329.35,95 L315.45,95 L315.45,51.3 L328.05,51.3 L329.15,61.3 Z" id="path-1"></path>
        <filter x="-10.7%" y="-36.8%" width="121.4%" height="177.9%" filterUnits="objectBoundingBox" id="filter-2">
            <feOffset dx="0" dy="2" in="SourceAlpha" result="shadowOffsetOuter1"></feOffset>
            <feGaussianBlur stdDeviation="12" in="shadowOffsetOuter1" result="shadowBlurOuter1"></feGaussianBlur>
            <feColorMatrix values="0 0 0 0 0   0 0 0 0 0   0 0 0 0 0  0 0 0 0.5 0" type="matrix" in="shadowBlurOuter1"></feColorMatrix>
        </filter>
        <path d="M656.9,80.6 L632.5,80.6 L626.5,95 L612.2,95 L645.4,18.5 L646.2,18.5 L679.4,95 L662.6,95 L656.9,80.6 Z M652.1,68.4 L645,50.5 L637.6,68.4 L652.1,68.4 Z M735.6,88.9 C733.733324,90.433341 730.766687,91.966659 726.7,93.5 C722.633313,95.033341 718.200024,95.8 713.4,95.8 C705.733295,95.8 699.066695,94.13335 693.4,90.8 C687.733305,87.46665 683.400015,82.9833615 680.4,77.35 C677.399985,71.7166385 675.9,65.533367 675.9,58.8 C675.9,51.399963 677.399985,44.800029 680.4,39 C683.400015,33.199971 687.599973,28.6833495 693,25.45 C698.400027,22.2166505 704.633298,20.6 711.7,20.6 C716.166689,20.6 720.299981,21.199994 724.1,22.4 C727.900019,23.600006 731.233319,25.099991 734.1,26.9 L728.4,40.6 C723.133307,36.59998 717.733361,34.6 712.2,34.6 C708.466648,34.6 704.966683,35.633323 701.7,37.7 C698.433317,39.766677 695.833343,42.5833155 693.9,46.15 C691.966657,49.7166845 691,53.666645 691,58 C691,62.733357 691.899991,66.8833155 693.7,70.45 C695.500009,74.0166845 698.06665,76.79999 701.4,78.8 C704.73335,80.80001 708.633311,81.8 713.1,81.8 C716.700018,81.8 719.933319,81.2166725 722.8,80.05 C725.666681,78.8833275 727.933325,77.500008 729.6,75.9 L735.6,88.9 Z M821.2,18.4 L821.2,95 L806.7,95 L806.7,59.9 L782.7,94 L782.5,94 L759.4,62.1 L759.4,95 L745.4,95 L745.4,18.4 L745.5,18.4 L782.8,71.3 L821,18.4 L821.2,18.4 Z" id="path-3"></path>
        <filter x="-17.7%" y="-45.2%" width="135.4%" height="195.6%" filterUnits="objectBoundingBox" id="filter-4">
            <feOffset dx="0" dy="2" in="SourceAlpha" result="shadowOffsetOuter1"></feOffset>
            <feGaussianBlur stdDeviation="12" in="shadowOffsetOuter1" result="shadowBlurOuter1"></feGaussianBlur>
            <feColorMatrix values="0 0 0 0 0   0 0 0 0 0   0 0 0 0 0  0 0 0 0.5 0" type="matrix" in="shadowBlurOuter1"></feColorMatrix>
        </filter>
        <path d="M403.75,67.8 C403.75,70.133345 404.449993,72.366656 405.85,74.5 C407.250007,76.633344 409.116655,78.36666 411.45,79.7 C413.783345,81.03334 416.28332,81.7 418.95,81.7 C421.816681,81.7 424.449988,81.03334 426.85,79.7 C429.250012,78.36666 431.133326,76.633344 432.5,74.5 C433.866673,72.366656 434.55,70.133345 434.55,67.8 L434.55,21.4 L448.85,21.4 L448.85,68.1 C448.85,73.366693 447.51668,78.1166455 444.85,82.35 C442.18332,86.5833545 438.566689,89.8833215 434,92.25 C429.43331,94.6166785 424.416694,95.8 418.95,95.8 C413.483306,95.8 408.483356,94.6166785 403.95,92.25 C399.416644,89.8833215 395.833346,86.5833545 393.2,82.35 C390.566653,78.1166455 389.25,73.366693 389.25,68.1 L389.25,21.4 L403.75,21.4 L403.75,67.8 Z M522.85,98.2 L505.35,54.6 L484.95,98.4 L455.35,21.9 L472.35,21.9 L486.85,64.5 L498.05,36.4 L492.25,21.9 L506.65,21.9 L523.15,62.8 L535.65,21.9 L551.25,21.9 L522.85,98.2 Z M597.15,56.2 C601.016686,58.000009 604.033323,60.3499855 606.2,63.25 C608.366678,66.1500145 609.45,69.499981 609.45,73.3 C609.45,80.766704 607.000025,86.2499825 602.1,89.75 C597.199976,93.2500175 591.08337,95 583.75,95 L559.25,95 L559.25,21.4 L580.85,21.4 C588.650039,21.4 594.783311,22.9833175 599.25,26.15 C603.716689,29.3166825 605.95,33.89997 605.95,39.9 C605.95,43.566685 605.183341,46.7833195 603.65,49.55 C602.116659,52.3166805 599.950014,54.533325 597.15,56.2 Z M573.75,51.5 L582.55,51.5 C585.21668,51.5 587.283326,50.6833415 588.75,49.05 C590.216674,47.4166585 590.95,45.400012 590.95,43 C590.95,40.533321 590.116675,38.6500065 588.45,37.35 C586.783325,36.0499935 584.483348,35.4 581.55,35.4 L573.75,35.4 L573.75,51.5 Z M583.05,81.5 C586.450017,81.5 589.19999,80.8166735 591.3,79.45 C593.400011,78.0833265 594.45,76.033347 594.45,73.3 C594.45,68.099974 590.316708,65.5 582.05,65.5 L573.75,65.5 L573.75,81.5 L583.05,81.5 Z" id="path-5"></path>
        <filter x="-16.8%" y="-45.5%" width="133.6%" height="196.1%" filterUnits="objectBoundingBox" id="filter-6">
            <feOffset dx="0" dy="2" in="SourceAlpha" result="shadowOffsetOuter1"></feOffset>
            <feGaussianBlur stdDeviation="12" in="shadowOffsetOuter1" result="shadowBlurOuter1"></feGaussianBlur>
            <feColorMatrix values="0 0 0 0 1   0 0 0 0 1   0 0 0 0 1  0 0 0 0.5 0" type="matrix" in="shadowBlurOuter1"></feColorMatrix>
        </filter>
    </defs>
    <g id="Page-1" stroke="none" stroke-width="1" fill="none" fill-rule="evenodd">
        <g id="Desktop-HD" transform="translate(-276.000000, -145.000000)">
            <g id="Group-2">
                <g id="Group" transform="translate(297.000000, 146.000000)">
                    <g id="Sponsor">
                        <use fill="black" fill-opacity="1" filter="url(#filter-2)" xlink:href="#path-1"></use>
                        <use fill="#FFFFFF" fill-rule="evenodd" xlink:href="#path-1"></use>
                    </g>
                    <g id="ACM">
                        <use fill="black" fill-opacity="1" filter="url(#filter-4)" xlink:href="#path-3"></use>
                        <use fill="#FFFFFF" fill-rule="evenodd" xlink:href="#path-3"></use>
                    </g>
                    <g id="UWB">
                        <use fill="black" fill-opacity="1" filter="url(#filter-6)" xlink:href="#path-5"></use>
                        <use fill="#141D78" fill-rule="evenodd" xlink:href="#path-5"></use>
                    </g>
                </g>
            </g>
        </g>
    </g>
</svg>

<svg width="866" height="143" xmlns="http://www.w3.org/2000/svg" xmlns:xlink="http://www.w3.org/1999/xlink"><defs><path d="M46.25 39.2c-6.4-3.533-11.967-5.3-16.7-5.3-3.2 0-5.683.633-7.45 1.9-1.767 1.267-2.65 3.167-2.65 5.7 0 2.333 1.283 4.383 3.85 6.15 2.567 1.767 5.983 3.45 10.25 5.05 3.467 1.267 6.433 2.717 8.9 4.35 2.467 1.633 4.517 3.883 6.15 6.75s2.45 6.5 2.45 10.9c0 3.8-.983 7.317-2.95 10.55-1.967 3.233-4.85 5.8-8.65 7.7-3.8 1.9-8.333 2.85-13.6 2.85-4.4 0-8.767-.65-13.1-1.95A40.92 40.92 0 0 1 .65 87.9l6.4-11.3c2.533 1.867 5.433 3.4 8.7 4.6 3.267 1.2 6.2 1.8 8.8 1.8 3.067 0 5.733-.65 8-1.95 2.267-1.3 3.4-3.417 3.4-6.35 0-3.8-3.567-7.1-10.7-9.9-4.2-1.667-7.7-3.267-10.5-4.8s-5.217-3.733-7.25-6.6c-2.033-2.867-3.05-6.467-3.05-10.8 0-6.333 2.083-11.433 6.25-15.3 4.167-3.867 9.717-5.967 16.65-6.3 5.467 0 10.033.617 13.7 1.85s7.233 2.983 10.7 5.25l-5.5 11.1zm42.2 9.9c4.067 0 7.7.967 10.9 2.9 3.2 1.933 5.717 4.7 7.55 8.3 1.833 3.6 2.75 7.833 2.75 12.7 0 4.8-1.017 8.95-3.05 12.45s-4.867 6.167-8.5 8c-3.633 1.833-7.783 2.75-12.45 2.75a21.32 21.32 0 0 1-7.45-1.35c-2.433-.9-4.45-2.183-6.05-3.85v25h-13.9V50.3h12l1.2 5.2c5.333-4.267 11-6.4 17-6.4zm-5.6 36.1c3.467 0 6.433-1.133 8.9-3.4 2.467-2.267 3.7-5.133 3.7-8.6 0-3.6-1.117-6.55-3.35-8.85s-4.983-3.45-8.25-3.45c-2.733 0-5.05.55-6.95 1.65-1.9 1.1-3.45 2.75-4.65 4.95v10.7c.733 2.133 2.05 3.833 3.95 5.1 1.9 1.267 4.117 1.9 6.65 1.9zm29.7-12.6c0-4.467 1.05-8.467 3.15-12 2.1-3.533 5.067-6.317 8.9-8.35 3.833-2.033 8.183-3.05 13.05-3.05 4.867 0 9.15 1.017 12.85 3.05 3.7 2.033 6.55 4.817 8.55 8.35 2 3.533 3 7.533 3 12s-1 8.5-3 12.1c-2 3.6-4.85 6.417-8.55 8.45-3.7 2.033-8.05 3.05-13.05 3.05-4.867 0-9.183-.95-12.95-2.85-3.767-1.9-6.7-4.617-8.8-8.15-2.1-3.533-3.15-7.733-3.15-12.6zm14.1.1c0 3.467 1 6.35 3 8.65 2 2.3 4.533 3.45 7.6 3.45 3.2 0 5.783-1.133 7.75-3.4 1.967-2.267 2.95-5.167 2.95-8.7 0-3.533-.983-6.433-2.95-8.7-1.967-2.267-4.55-3.4-7.75-3.4-3.067 0-5.6 1.15-7.6 3.45-2 2.3-3 5.183-3 8.65zm72.1-23.5c4.133 0 7.583 1.233 10.35 3.7 2.767 2.467 4.183 5.6 4.25 9.4V95h-14V67.5c-.2-4.267-2.333-6.4-6.4-6.4-3.2 0-5.767 1.5-7.7 4.5-1.933 3-2.9 6.867-2.9 11.6V95h-14V51.3h12.7l1 7c1.6-2.867 3.817-5.1 6.65-6.7 2.833-1.6 6.183-2.4 10.05-2.4zm38.5 46.7c-3.6 0-6.967-.633-10.1-1.9s-5.733-3.033-7.8-5.3l5.8-7.7c3.867 3.6 7.5 5.4 10.9 5.4 1.8 0 3.25-.283 4.35-.85 1.1-.567 1.65-1.417 1.65-2.55 0-1.333-.633-2.35-1.9-3.05-1.267-.7-2.683-1.283-4.25-1.75-1.567-.467-2.617-.767-3.15-.9-3.8-1.2-6.633-2.983-8.5-5.35-1.867-2.367-2.8-5.083-2.8-8.15 0-2.333.617-4.617 1.85-6.85 1.233-2.233 3.15-4.067 5.75-5.5 2.6-1.433 5.833-2.15 9.7-2.15 3.6 0 6.667.367 9.2 1.1 2.533.733 4.967 1.933 7.3 3.6l-5.3 8.2a19.17 19.17 0 0 0-4.45-2.65c-1.633-.7-3.117-1.05-4.45-1.05-1.6 0-2.9.333-3.9 1s-1.5 1.467-1.5 2.4c-.067 1.4.517 2.45 1.75 3.15 1.233.7 3.15 1.417 5.75 2.15.4.133.817.267 1.25.4.433.133.883.267 1.35.4 6.867 2.267 10.3 6.4 10.3 12.4 0 2.8-.7 5.367-2.1 7.7-1.4 2.333-3.517 4.217-6.35 5.65-2.833 1.433-6.283 2.15-10.35 2.15zm22.4-23.3c0-4.467 1.05-8.467 3.15-12 2.1-3.533 5.067-6.317 8.9-8.35 3.833-2.033 8.183-3.05 13.05-3.05 4.867 0 9.15 1.017 12.85 3.05 3.7 2.033 6.55 4.817 8.55 8.35 2 3.533 3 7.533 3 12s-1 8.5-3 12.1c-2 3.6-4.85 6.417-8.55 8.45-3.7 2.033-8.05 3.05-13.05 3.05-4.867 0-9.183-.95-12.95-2.85-3.767-1.9-6.7-4.617-8.8-8.15-2.1-3.533-3.15-7.733-3.15-12.6zm14.1.1c0 3.467 1 6.35 3 8.65 2 2.3 4.533 3.45 7.6 3.45 3.2 0 5.783-1.133 7.75-3.4 1.967-2.267 2.95-5.167 2.95-8.7 0-3.533-.983-6.433-2.95-8.7-1.967-2.267-4.55-3.4-7.75-3.4-3.067 0-5.6 1.15-7.6 3.45-2 2.3-3 5.183-3 8.65zm55.4-11.4c1.2-2.333 2.85-4.433 4.95-6.3s4.25-3.317 6.45-4.35c2.2-1.033 3.933-1.55 5.2-1.55l-.7 14c-.4-.067-.967-.1-1.7-.1-2.8 0-5.267.733-7.4 2.2a14.57 14.57 0 0 0-4.9 5.65c-1.133 2.3-1.7 4.65-1.7 7.05V95h-13.9V51.3h12.6l1.1 10z" id="b"/><filter x="-10.7%" y="-36.8%" width="121.4%" height="177.9%" filterUnits="objectBoundingBox" id="a"><feOffset dy="2" in="SourceAlpha" result="shadowOffsetOuter1"/><feGaussianBlur stdDeviation="12" in="shadowOffsetOuter1" result="shadowBlurOuter1"/><feColorMatrix values="0 0 0 0 0 0 0 0 0 0 0 0 0 0 0 0 0 0 0.5 0" in="shadowBlurOuter1"/></filter><path d="M656.9 80.6h-24.4l-6 14.4h-14.3l33.2-76.5h.8L679.4 95h-16.8l-5.7-14.4zm-4.8-12.2L645 50.5l-7.4 17.9h14.5zm83.5 20.5c-1.867 1.533-4.833 3.067-8.9 4.6-4.067 1.533-8.5 2.3-13.3 2.3-7.667 0-14.333-1.667-20-5s-10-7.817-13-13.45c-3-5.633-4.5-11.817-4.5-18.55 0-7.4 1.5-14 4.5-19.8 3-5.8 7.2-10.317 12.6-13.55 5.4-3.233 11.633-4.85 18.7-4.85 4.467 0 8.6.6 12.4 1.8 3.8 1.2 7.133 2.7 10 4.5l-5.7 13.7c-5.267-4-10.667-6-16.2-6-3.733 0-7.233 1.033-10.5 3.1-3.267 2.067-5.867 4.883-7.8 8.45-1.933 3.567-2.9 7.517-2.9 11.85 0 4.733.9 8.883 2.7 12.45 1.8 3.567 4.367 6.35 7.7 8.35s7.233 3 11.7 3c3.6 0 6.833-.583 9.7-1.75 2.867-1.167 5.133-2.55 6.8-4.15l6 13zm85.6-70.5V95h-14.5V59.9l-24 34.1h-.2l-23.1-31.9V95h-14V18.4h.1l37.3 52.9L821 18.4h.2z" id="d"/><filter x="-17.7%" y="-45.2%" width="135.4%" height="195.6%" filterUnits="objectBoundingBox" id="c"><feOffset dy="2" in="SourceAlpha" result="shadowOffsetOuter1"/><feGaussianBlur stdDeviation="12" in="shadowOffsetOuter1" result="shadowBlurOuter1"/><feColorMatrix values="0 0 0 0 0 0 0 0 0 0 0 0 0 0 0 0 0 0 0.5 0" in="shadowBlurOuter1"/></filter><path d="M403.75 67.8c0 2.333.7 4.567 2.1 6.7 1.4 2.133 3.267 3.867 5.6 5.2 2.333 1.333 4.833 2 7.5 2 2.867 0 5.5-.667 7.9-2 2.4-1.333 4.283-3.067 5.65-5.2s2.05-4.367 2.05-6.7V21.4h14.3v46.7c0 5.267-1.333 10.017-4 14.25-2.667 4.233-6.283 7.533-10.85 9.9-4.567 2.367-9.583 3.55-15.05 3.55-5.467 0-10.467-1.183-15-3.55-4.533-2.367-8.117-5.667-10.75-9.9-2.633-4.233-3.95-8.983-3.95-14.25V21.4h14.5v46.4zm119.1 30.4l-17.5-43.6-20.4 43.8-29.6-76.5h17l14.5 42.6 11.2-28.1-5.8-14.5h14.4l16.5 40.9 12.5-40.9h15.6l-28.4 76.3zm74.3-42c3.867 1.8 6.883 4.15 9.05 7.05 2.167 2.9 3.25 6.25 3.25 10.05 0 7.467-2.45 12.95-7.35 16.45-4.9 3.5-11.017 5.25-18.35 5.25h-24.5V21.4h21.6c7.8 0 13.933 1.583 18.4 4.75 4.467 3.167 6.7 7.75 6.7 13.75 0 3.667-.767 6.883-2.3 9.65-1.533 2.767-3.7 4.983-6.5 6.65zm-23.4-4.7h8.8c2.667 0 4.733-.817 6.2-2.45 1.467-1.633 2.2-3.65 2.2-6.05 0-2.467-.833-4.35-2.5-5.65-1.667-1.3-3.967-1.95-6.9-1.95h-7.8v16.1zm9.3 30c3.4 0 6.15-.683 8.25-2.05 2.1-1.367 3.15-3.417 3.15-6.15 0-5.2-4.133-7.8-12.4-7.8h-8.3v16h9.3z" id="f"/><filter x="-16.8%" y="-45.5%" width="133.6%" height="196.1%" filterUnits="objectBoundingBox" id="e"><feOffset dy="2" in="SourceAlpha" result="shadowOffsetOuter1"/><feGaussianBlur stdDeviation="12" in="shadowOffsetOuter1" result="shadowBlurOuter1"/><feColorMatrix values="0 0 0 0 1 0 0 0 0 1 0 0 0 0 1 0 0 0 0.5 0" in="shadowBlurOuter1"/></filter></defs><g fill="none" fill-rule="evenodd"><g transform="translate(21 1)"><use fill="#000" filter="url(#a)" xlink:href="#b"/><use fill="#FFF" xlink:href="#b"/></g><g transform="translate(21 1)"><use fill="#000" filter="url(#c)" xlink:href="#d"/><use fill="#FFF" xlink:href="#d"/></g><g transform="translate(21 1)"><use fill="#000" filter="url(#e)" xlink:href="#f"/><use fill="#141D78" xlink:href="#f"/></g></g></svg>
